!!!COM: Augusta Holme\s
!!!CNT: Francais
!!!TXO: Francais
!!!OTL: "La Haine"
!!!LYR: 
!!!OPR: Les Sept Ivresses
!!!OPS: Op. 
!!!ONM: No. 4
!!!ENC: Alyona Dzerbina
!!!YOR: Augusta Holme\s, La Haine
!!!YOR: Da Capo Press, New York, 1984
!!!ODT: 1882/
!!NB: Vocal melody and text encoded.
**kern	**text
*staff1	*staff1
=1-	=1-
*clefG2	*
*k[b-]	*
*met(C)	*
*M4/4	*
1r	.
=2	=2
1r	.
=3	=3
1r	.
=4	=4
1r	.
=5	=5
4r	.
4r	.
4r	.
8.r	.
{16a	{Que
=6	=6
(2dd	l'om-
4.a)	-bre
8a	des
=7	=7
[2a	nuits
4a]	|
8r	.
8a	te
=8	=8
(2dd	gla-
4.a)	-ce
8a	le
=9	=9
2.a	sang;
8a}	|}
8r	.
=10	=10
{(4.ff	{Que
8cc)	l'a-
4.cc	-zur
8cc	du
=11	=11
[2cc	jour
4cc]	|
4r	.
=12	=12
[1ff	bru-
=13	=13
8ff]	|
8cc	-le
8a-	ta
8b-	pau-
4cc	-pie^-
8cc}	-re!}
16r	.
{16cc	{Que
=14	=14
2dd-	toute
4cc	es-
4ff	-pe/-
=15	=15
2ee	-ran-
4ff	-ce
4cc	et
=16	=16
2dd-	tou-
4cc	-te
4ff	lu-
=17	=17
2.ee	-mie\-
4dd}	-re}
=18	=18
{4g	{A
4dd	ton
4f	souf-
4dd	-fle
=19	=19
(4e	meu-
2dd)	-re
8d	en
8g	se
=20	=20
(2b-	fle/-
4cc#)	|
4ee	-tris-
=21	=21
[2dd	-sant.
4dd]}	|}
4r	.
=22	=22
1r	.
=23	=23
{4.d	{Qu'un
8d	a-
4.e	-mer
8e	de/-
=24	=24
(2f#	-sir
4.g)	|
8g	sans
=25	=25
(2a	tre^-
4.b-	-ve
8b-	de/-
=26	=26
2cc	-vo-
4.dd)}	-re,}
{8dd	{Vau-
=27	=27
2ee	-tour
4.ff	af-
8ff	-fa-
=28	=28
[4ff#	-me/,
8ff#]	|
8ff#	ton
[4gg	coeur
8gg]	|
16g	et
16e	tes
=29	=29
[2a	sens!
4a]}	|}
4r	.
=30	=30
1r	.
=31	=31
{4.b-	{Que
8b-	ton
4.b-	pain
8cc	noir-
=32	=32
4.a-	-ce
8f	te
4.dd-	bri-
16dd-	-se
16ee-	les
=33	=33
[2cc-	dents!
4cc-]}	|}
4r	.
=34	=34
1r	.
=35	=35
{(2.ee	{Que
4e)	l'en-
=36	=36
2.e-	-nui
4ee-	t'ac-
=37	=37
2.ee	-ca-
8e}	-ble}
8r	.
=38	=38
{4e-	{Que
4en	l'en-
4f	-nui
4f#	t'ac-
=39	=39
4g	-cable
4a-	et
4an	te
8.b-	des-
16b-	-ho-
=40	=40
(1a	-no-
=41	=41
[2d)	-re!
4d]}	|}
4r	.
=42	=42
*M2/4	*
4r	.
8r	.
{8a	{Qu'un
=43	=43
*met(C)	*
*M4/4	*
2dd	voi-
4dd	-le
4dd	d'hor-
=44	=44
[2e-	-reur
4e-]	|
4ee-	te
=45	=45
2ee	ca-
4.ee	-che
8ee	le
=46	=46
[2f	jour;
4f]}	|}
{4f	{Que
=47	=47
4a	vou-
8.dd	-lant
16ff	pri-
[2aa	-er
=48	=48
4aa]	|
(8ff	ta
8dd)	|
4a	bou-
8.f	-che
16g	blas-
=49	=49
(1a	-phe^-
=50	=50
[1d)	-me!
=51	=51
*M2/4	*
8d]}	|}
8r	.
4r	.
=52	=52
*met(C)	*
*M4/4	*
{(2ee-	{Meurs!
4een)	|
4r	.
=53	=53
(2ee	meurs
4ff)	|
4r	.
=54	=54
4r	.
8.ff	e/-
16ff	-cra-
8.ff#	-se/
16ff#	sous
(12ff#	mon
12gg	a-
12aa)	-na-
=55	=55
(2g	-the^-
[4b-)	-me,
8b-]}	|}
8r	.
=56	=56
{[2a	{Toi
8a]	|
8a	qui
8dd	m'as
8ff	ra-
=57	=57
[2aa	-vi
8aa]	|
8r	.
8f	mon
8g	u-
=58	=58
2.a	-nique
4a	a-
=59	=59
[1d	-mour!
=60	=60
4d]}	|}
4r	.
2r	.
=61	=61
1r	.
=62	=62
1r	.
=63	=63
1r	.
==	==
*-	*-
